Numix-Circle/48x48/apps/systemback.svg

<?xml version="1.0" encoding="UTF-8" standalone="no"?>
<svg
   xmlns:dc="http://purl.org/dc/elements/1.1/"
   xmlns:cc="http://creativecommons.org/ns#"
   xmlns:rdf="http://www.w3.org/1999/02/22-rdf-syntax-ns#"
   xmlns:svg="http://www.w3.org/2000/svg"
   xmlns="http://www.w3.org/2000/svg"
   xmlns:xlink="http://www.w3.org/1999/xlink"
   xmlns:sodipodi="http://sodipodi.sourceforge.net/DTD/sodipodi-0.dtd"
   xmlns:inkscape="http://www.inkscape.org/namespaces/inkscape"
   viewBox="0 0 48 48"
   id="svg2"
   version="1.1"
   inkscape:version="0.91 r13725"
   width="100%"
   height="100%"
   sodipodi:docname="systemback.svg">
  <metadata
     id="metadata65">
    <rdf:RDF>
      <cc:Work
         rdf:about="">
        <dc:format>image/svg+xml</dc:format>
        <dc:type
           rdf:resource="http://purl.org/dc/dcmitype/StillImage" />
        <dc:title />
      </cc:Work>
    </rdf:RDF>
  </metadata>
  <sodipodi:namedview
     pagecolor="#ffffff"
     bordercolor="#666666"
     borderopacity="1"
     objecttolerance="10"
     gridtolerance="10"
     guidetolerance="10"
     inkscape:pageopacity="0"
     inkscape:pageshadow="2"
     inkscape:window-width="1366"
     inkscape:window-height="713"
     id="namedview63"
     showgrid="false"
     inkscape:zoom="2.4583334"
     inkscape:cx="62.750677"
     inkscape:cy="-33.805852"
     inkscape:window-x="0"
     inkscape:window-y="28"
     inkscape:window-maximized="1"
     inkscape:current-layer="svg2" />
  <defs
     id="defs4">
    <linearGradient
       id="linearGradient3819">
      <stop
         style="stop-color:#fff19d;stop-opacity:1;"
         offset="0"
         id="stop3821" />
      <stop
         style="stop-color:#fff4b1;stop-opacity:1;"
         offset="1"
         id="stop3823" />
    </linearGradient>
    <clipPath
       id="clipPath-402420635">
      <g
         transform="translate(0,-1004.3622)"
         id="g12">
        <path
           d="m -24 13 c 0 1.105 -0.672 2 -1.5 2 -0.828 0 -1.5 -0.895 -1.5 -2 0 -1.105 0.672 -2 1.5 -2 0.828 0 1.5 0.895 1.5 2 z"
           transform="matrix(15.333333,0,0,11.5,414.99999,878.8622)"
           fill="#1890d0"
           id="path14" />
      </g>
    </clipPath>
    <linearGradient
       inkscape:collect="always"
       xlink:href="#linearGradient3819"
       id="linearGradient3825"
       x1="1"
       y1="24"
       x2="47"
       y2="24"
       gradientUnits="userSpaceOnUse"
       gradientTransform="matrix(0,-1,1,0,0,48)" />
  </defs>
  <g
     id="g21">
    <path
       d="m 36.31 5 c 5.859 4.062 9.688 10.831 9.688 18.5 c 0 12.426 -10.07 22.5 -22.5 22.5 c -7.669 0 -14.438 -3.828 -18.5 -9.688 c 1.037 1.822 2.306 3.499 3.781 4.969 c 4.085 3.712 9.514 5.969 15.469 5.969 c 12.703 0 23 -10.298 23 -23 c 0 -5.954 -2.256 -11.384 -5.969 -15.469 c -1.469 -1.475 -3.147 -2.744 -4.969 -3.781 z m 4.969 3.781 c 3.854 4.113 6.219 9.637 6.219 15.719 c 0 12.703 -10.297 23 -23 23 c -6.081 0 -11.606 -2.364 -15.719 -6.219 c 4.16 4.144 9.883 6.719 16.219 6.719 c 12.703 0 23 -10.298 23 -23 c 0 -6.335 -2.575 -12.06 -6.719 -16.219 z"
       opacity="0.05"
       id="path23" />
    <path
       d="m 41.28 8.781 c 3.712 4.085 5.969 9.514 5.969 15.469 c 0 12.703 -10.297 23 -23 23 c -5.954 0 -11.384 -2.256 -15.469 -5.969 c 4.113 3.854 9.637 6.219 15.719 6.219 c 12.703 0 23 -10.298 23 -23 c 0 -6.081 -2.364 -11.606 -6.219 -15.719 z"
       opacity="0.1"
       id="path25" />
    <path
       d="m 31.25 2.375 c 8.615 3.154 14.75 11.417 14.75 21.13 c 0 12.426 -10.07 22.5 -22.5 22.5 c -9.708 0 -17.971 -6.135 -21.12 -14.75 a 23 23 0 0 0 44.875 -7 a 23 23 0 0 0 -16 -21.875 z"
       opacity="0.2"
       id="path27" />
  </g>
  <g
     id="g33" />
  <path
     id="path35"
     d="M 1,24 C 1,11.297 11.297,1 24,1 36.703,1 47,11.297 47,24 47,36.703 36.703,47 24,47 11.297,47 1,36.703 1,24 z"
     inkscape:connector-curvature="0"
     style="fill:url(#linearGradient3825);fill-opacity:1" />
  <g
     id="g35">
    <g
       clip-path="url(#clipPath-402420635)"
       id="g37">
      <g
         transform="translate(1,1)"
         id="g39">
        <g
           opacity="0.1"
           id="g41">
          <!-- color: #eeeeee -->
          <g
             id="g43">
            <path
               d="m 34.555 19.613 c -1.828 -4.03 -5.922 -6.617 -10.531 -6.617 c -4.715 0 -9.03 2.832 -10.734 7.04 l 3.578 1.324 c 1.129 -2.809 4.01 -4.691 7.156 -4.691 c 3.035 0 5.715 1.68 6.961 4.305 l -2.609 1 l 6.672 3.684 l 1.953 -6.977 m -2.445 0.934"
               fill="#000"
               stroke="none"
               fill-rule="nonzero"
               fill-opacity="1"
               id="path45" />
            <path
               d="m 24.02 31.34 c -3.01 0 -5.75 -1.734 -6.977 -4.344 l 2.57 -0.949 l -6.598 -3.605 l -2.02 6.793 l 2.461 -0.914 c 1.793 4.01 5.98 6.68 10.563 6.68 c 4.734 0 8.922 -2.715 10.664 -6.922 l -3.543 -1.359 c -1.168 2.809 -3.965 4.621 -7.121 4.621 m 0 0"
               fill="#000"
               stroke="none"
               fill-rule="nonzero"
               fill-opacity="1"
               id="path47" />
          </g>
        </g>
      </g>
    </g>
  </g>
  <path
     style="fill:#4e8746;fill-opacity:1;fill-rule:nonzero;stroke:none"
     d="M 24.03125 13 C 19.31625 13 14.98525 15.82325 13.28125 20.03125 L 16.875 21.375 C 18.004 18.566 20.88525 16.65625 24.03125 16.65625 C 27.06625 16.65625 29.754 18.34375 31 20.96875 L 28.375 21.96875 L 35.0625 25.65625 L 37 18.6875 L 34.5625 19.625 C 32.7345 15.595 28.64025 13 24.03125 13 z M 13 22.4375 L 11 29.25 L 13.46875 28.3125 C 15.26175 32.3225 19.44825 35 24.03125 35 C 28.76525 35 32.9455 32.30075 34.6875 28.09375 L 31.125 26.71875 C 29.957 29.52775 27.18725 31.34375 24.03125 31.34375 C 21.02125 31.34375 18.25825 29.61 17.03125 27 L 19.625 26.0625 L 13 22.4375 z "
     id="path55" />
  <g
     id="g59">
    <path
       d="m 40.03 7.531 c 3.712 4.084 5.969 9.514 5.969 15.469 0 12.703 -10.297 23 -23 23 c -5.954 0 -11.384 -2.256 -15.469 -5.969 4.178 4.291 10.01 6.969 16.469 6.969 c 12.703 0 23 -10.298 23 -23 0 -6.462 -2.677 -12.291 -6.969 -16.469 z"
       opacity="0.1"
       id="path61" />
  </g>
</svg>

<svg xmlns="http://www.w3.org/2000/svg" viewBox="0 0 48 48">
 <defs>
  <clipPath id="clipPath-402420635">
   <g transform="translate(0,-1004.3622)">
    <path d="m -24 13 c 0 1.105 -0.672 2 -1.5 2 -0.828 0 -1.5 -0.895 -1.5 -2 0 -1.105 0.672 -2 1.5 -2 0.828 0 1.5 0.895 1.5 2 z" transform="matrix(15.333333,0,0,11.5,414.99999,878.8622)" style="fill:#1890d0"/>
   </g>
  </clipPath>
  <linearGradient id="linearGradient3825" x1="1" x2="47" gradientUnits="userSpaceOnUse" gradientTransform="matrix(0,-1,1,0,0,48)">
   <stop style="stop-color:#fff19d;stop-opacity:1"/>
   <stop offset="1" style="stop-color:#fff4b1;stop-opacity:1"/>
  </linearGradient>
 </defs>
 <g>
  <path d="m 36.31 5 c 5.859 4.062 9.688 10.831 9.688 18.5 c 0 12.426 -10.07 22.5 -22.5 22.5 c -7.669 0 -14.438 -3.828 -18.5 -9.688 c 1.037 1.822 2.306 3.499 3.781 4.969 c 4.085 3.712 9.514 5.969 15.469 5.969 c 12.703 0 23 -10.298 23 -23 c 0 -5.954 -2.256 -11.384 -5.969 -15.469 c -1.469 -1.475 -3.147 -2.744 -4.969 -3.781 z m 4.969 3.781 c 3.854 4.113 6.219 9.637 6.219 15.719 c 0 12.703 -10.297 23 -23 23 c -6.081 0 -11.606 -2.364 -15.719 -6.219 c 4.16 4.144 9.883 6.719 16.219 6.719 c 12.703 0 23 -10.298 23 -23 c 0 -6.335 -2.575 -12.06 -6.719 -16.219 z" style="opacity:0.05"/>
  <path d="m 41.28 8.781 c 3.712 4.085 5.969 9.514 5.969 15.469 c 0 12.703 -10.297 23 -23 23 c -5.954 0 -11.384 -2.256 -15.469 -5.969 c 4.113 3.854 9.637 6.219 15.719 6.219 c 12.703 0 23 -10.298 23 -23 c 0 -6.081 -2.364 -11.606 -6.219 -15.719 z" style="opacity:0.1"/>
  <path d="m 31.25 2.375 c 8.615 3.154 14.75 11.417 14.75 21.13 c 0 12.426 -10.07 22.5 -22.5 22.5 c -9.708 0 -17.971 -6.135 -21.12 -14.75 a 23 23 0 0 0 44.875 -7 a 23 23 0 0 0 -16 -21.875 z" style="opacity:0.2"/>
 </g>
 <path d="M 1,24 C 1,11.297 11.297,1 24,1 36.703,1 47,11.297 47,24 47,36.703 36.703,47 24,47 11.297,47 1,36.703 1,24 z" style="fill:url(#linearGradient3825);fill-opacity:1"/>
 <g>
  <g style="clip-path:url(#clipPath-402420635)">
   <g transform="translate(1,1)">
    <g style="opacity:0.1">
     <!-- color: #eeeeee -->
     <g>
      <path d="m 34.555 19.613 c -1.828 -4.03 -5.922 -6.617 -10.531 -6.617 c -4.715 0 -9.03 2.832 -10.734 7.04 l 3.578 1.324 c 1.129 -2.809 4.01 -4.691 7.156 -4.691 c 3.035 0 5.715 1.68 6.961 4.305 l -2.609 1 l 6.672 3.684 l 1.953 -6.977 m -2.445 0.934" style="fill:#000;fill-opacity:1;stroke:none;fill-rule:nonzero"/>
      <path d="m 24.02 31.34 c -3.01 0 -5.75 -1.734 -6.977 -4.344 l 2.57 -0.949 l -6.598 -3.605 l -2.02 6.793 l 2.461 -0.914 c 1.793 4.01 5.98 6.68 10.563 6.68 c 4.734 0 8.922 -2.715 10.664 -6.922 l -3.543 -1.359 c -1.168 2.809 -3.965 4.621 -7.121 4.621 m 0 0" style="fill:#000;fill-opacity:1;stroke:none;fill-rule:nonzero"/>
     </g>
    </g>
   </g>
  </g>
 </g>
 <path d="m 24.03 13 c -4.715 0 -9.05 2.823 -10.75 7.03 l 3.594 1.344 c 1.129 -2.809 4.01 -4.719 7.156 -4.719 c 3.035 0 5.723 1.688 6.969 4.313 l -2.625 1 l 6.688 3.688 l 1.938 -6.969 l -2.438 0.938 c -1.828 -4.03 -5.922 -6.625 -10.531 -6.625 z m -11.03 9.438 l -2 6.813 l 2.469 -0.938 c 1.793 4.01 5.98 6.688 10.563 6.688 c 4.734 0 8.914 -2.699 10.656 -6.906 l -3.563 -1.375 c -1.168 2.809 -3.938 4.625 -7.094 4.625 c -3.01 0 -5.773 -1.734 -7 -4.344 l 2.594 -0.938 l -6.625 -3.625 z" style="fill:#4e8746;fill-opacity:1;stroke:none;fill-rule:nonzero"/>
 <g>
  <path d="m 40.03 7.531 c 3.712 4.084 5.969 9.514 5.969 15.469 0 12.703 -10.297 23 -23 23 c -5.954 0 -11.384 -2.256 -15.469 -5.969 4.178 4.291 10.01 6.969 16.469 6.969 c 12.703 0 23 -10.298 23 -23 0 -6.462 -2.677 -12.291 -6.969 -16.469 z" style="opacity:0.1"/>
 </g>
</svg>
